X: 22091
T: Knocknarea
R: slip jig
M: 9/8
K: Gmajor
G3 gfd ABG|EcE dEc EFD|G3 gfd ABG|Bcd fed cAF|
G3 gfd ABG|EcE dEc EFD|G3 gfd ABG|Bcd fed cdf||
gfg bag a2d|f2a bc'b agf|e2d cdg dcB|AdF dGd Adf|
g3 gfd ABG|EcE dEc EFD|G3 gfd ABG|1 Bcd fed cdf:|2 Bcd fed cAF||

